icons/svg/24x24/pin/outline.svg

<svg xmlns="http://www.w3.org/2000/svg" width="24" height="24" viewBox="0 0 24 24">
  <path fill-rule="evenodd" d="M9.1191,16.4668 C8.4131,15.0208 8.9431,13.3328 8.9491,13.3168 C9.0681,12.9568 8.9751,12.5608 8.7071,12.2928 L4.4141,7.9998 L7.0001,5.4138 L11.2931,9.7068 C11.5581,9.9738 11.9541,10.0648 12.3121,9.9498 C12.3321,9.9438 14.0211,9.4128 15.4671,10.1188 L9.1191,16.4668 Z M22.0001,20.9998 L14.4161,13.9978 L17.7071,10.7068 C18.0981,10.3168 18.0981,9.6838 17.7071,9.2928 C15.8791,7.4648 13.4411,7.6678 12.3081,7.8938 L7.7071,3.2928 C7.3161,2.9028 6.6831,2.9028 6.2931,3.2928 L2.2931,7.2928 C1.9021,7.6838 1.9021,8.3168 2.2931,8.7068 L6.8931,13.3078 C6.6681,14.4418 6.4651,16.8788 8.2931,18.7068 C8.4881,18.9028 8.7441,18.9998 9.0001,18.9998 C9.2561,18.9998 9.5121,18.9028 9.7071,18.7068 L13.0021,15.4118 L19.0001,20.9998 L22.0001,20.9998 Z"/>
</svg>

<svg width="24" height="24" fill="none" xmlns="http://www.w3.org/2000/svg">
  <path fill-rule="evenodd" clip-rule="evenodd" d="M9.12 16.467c-.706-1.446-.177-3.134-.172-3.15.12-.36.026-.756-.24-1.024L4.413 8 7 5.414l4.293 4.293c.265.266.66.357 1.02.243.02-.005 1.708-.536 3.154.169L9.12 16.467zM22 21l-7.584-7.002 3.291-3.291a.999.999 0 000-1.414c-1.829-1.83-4.266-1.625-5.4-1.4l-4.6-4.6A1.007 1.007 0 007 3a.987.987 0 00-.707.293l-4 4a.997.997 0 000 1.414l4.6 4.6c-.225 1.135-.428 3.572 1.4 5.4A.993.993 0 009 19a.993.993 0 00.707-.293l3.295-3.295L19 21h3z" fill="#000"/>
</svg>
